Sweet-Rainbow/icons/transmission.svg

<?xml version="1.0" encoding="UTF-8" standalone="no"?>
<!-- Generator: Gravit.io -->

<svg
   xmlns:dc="http://purl.org/dc/elements/1.1/"
   xmlns:cc="http://creativecommons.org/ns#"
   xmlns:rdf="http://www.w3.org/1999/02/22-rdf-syntax-ns#"
   xmlns:svg="http://www.w3.org/2000/svg"
   xmlns="http://www.w3.org/2000/svg"
   xmlns:sodipodi="http://sodipodi.sourceforge.net/DTD/sodipodi-0.dtd"
   xmlns:inkscape="http://www.inkscape.org/namespaces/inkscape"
   style="isolation:isolate"
   viewBox="0 0 36 36"
   width="48"
   height="48"
   version="1.1"
   id="svg23"
   sodipodi:docname="transmission.svg"
   inkscape:version="0.92.4 (5da689c313, 2019-01-14)">
  <metadata
     id="metadata29">
    <rdf:RDF>
      <cc:Work
         rdf:about="">
        <dc:format>image/svg+xml</dc:format>
        <dc:type
           rdf:resource="http://purl.org/dc/dcmitype/StillImage" />
        <dc:title></dc:title>
      </cc:Work>
    </rdf:RDF>
  </metadata>
  <defs
     id="defs27" />
  <sodipodi:namedview
     pagecolor="#ffffff"
     bordercolor="#666666"
     borderopacity="1"
     objecttolerance="10"
     gridtolerance="10"
     guidetolerance="10"
     inkscape:pageopacity="0"
     inkscape:pageshadow="2"
     inkscape:window-width="640"
     inkscape:window-height="480"
     id="namedview25"
     showgrid="false"
     inkscape:zoom="29.365243"
     inkscape:cx="25.325443"
     inkscape:cy="32"
     inkscape:current-layer="svg23"
     units="px" />
  <linearGradient
     id="_lgradient_21"
     x1="0"
     y1="0.5"
     x2="1"
     y2="0.5"
     gradientTransform="matrix(36,0,0,31.1,6,1)"
     gradientUnits="userSpaceOnUse">
    <stop
       offset="0%"
       stop-opacity="1"
       style="stop-color:rgb(211,16,39)"
       id="stop2" />
    <stop
       offset="97.82608695652173%"
       stop-opacity="1"
       style="stop-color:rgb(234,56,77)"
       id="stop4" />
  </linearGradient>
  <linearGradient
     id="_lgradient_22"
     x1="0"
     y1="0.5"
     x2="1"
     y2="0.5"
     gradientTransform="matrix(31.05,0,0,28.56,8.45,13)"
     gradientUnits="userSpaceOnUse">
    <stop
       offset="0%"
       stop-opacity="1"
       style="stop-color:rgb(211,16,39)"
       id="stop9" />
    <stop
       offset="97.82608695652173%"
       stop-opacity="1"
       style="stop-color:rgb(234,56,77)"
       id="stop11" />
  </linearGradient>
  <linearGradient
     id="_lgradient_23"
     x1="0"
     y1="0.5"
     x2="1"
     y2="0.5"
     gradientTransform="matrix(44,0,0,34,2,13)"
     gradientUnits="userSpaceOnUse">
    <stop
       offset="0%"
       stop-opacity="1"
       style="stop-color:rgb(211,16,39)"
       id="stop16" />
    <stop
       offset="97.82608695652173%"
       stop-opacity="1"
       style="stop-color:rgb(234,56,77)"
       id="stop18" />
  </linearGradient>
  <g
     id="g839"
     transform="matrix(0.7826087,0,0,0.7826087,-0.7826088,-0.7826088)">
    <path
       id="path7"
       d="m 22.75,13.4 v 0 c 0,1.104 -0.896,2 -2,2 v 0 c -1.104,0 -2,-0.896 -2,-2 v 0 -1.9 H 17.5 9 c -1.656,0 -3,-1.344 -3,-3 V 4 C 6,2.344 7.344,1 9,1 h 30 c 1.656,0 3,1.344 3,3 v 4.5 c 0,1.656 -1.344,3 -3,3 h -9.75 v 18.6 c 0,1.104 -0.896,2 -2,2 h -6.5 c -1.104,0 -2,-0.896 -2,-2 V 14 14 c 0,-1.104 0.896,-2 2,-2 v 0 c 1.104,0 2,0.896 2,2 v 0 14.1 h 2.5 V 8.5 c 0,-0.552 0.448,-1 1,-1 H 38 V 5 H 10 v 2.5 h 7.5 4.25 c 0.552,0 1,0.448 1,1 z"
       inkscape:connector-curvature="0"
       style="fill:url(#_lgradient_21)" />
    <path
       id="path14"
       d="m 30.5,15 v 0 c 0,-1.104 0.896,-2 2,-2 h 1 v 2 l 1,15.5 h 3 c 1.104,0 2,0.896 2,2 v 2.63 c 0,1.104 -0.862,2.246 -1.923,2.549 L 23.99,41.56 10.589,37.624 C 9.53,37.313 8.64,36.164 8.603,35.061 L 8.517,32.499 C 8.48,31.396 9.346,30.5 10.45,30.5 h 3.05 l 1,-15.5 v -2 h 1 c 1.104,0 2,0.896 2,2 v 0 L 16.608,31.503 C 16.548,32.605 15.604,33.5 14.5,33.5 h -2.95 l 0.04,1.3 12.42,3.64 12.49,-3.57 V 33.5 h -3 c -1.104,0 -2.048,-0.895 -2.108,-1.997 z"
       inkscape:connector-curvature="0"
       style="fill:url(#_lgradient_22)" />
    <path
       id="path21"
       d="m 34,17 h -2 v -3 c 0,-0.552 0.448,-1 1,-1 h 1 7 c 2.76,0 5,2.24 5,5 v 24 c 0,2.76 -2.24,5 -5,5 H 7 C 4.24,47 2,44.76 2,42 V 18 c 0,-2.76 2.24,-5 5,-5 h 6 q 1,0 1.667,0 v 0 C 15.403,13 16,13.896 16,15 v 2 H 14 9 c -1.656,0 -3,1.344 -3,3 v 20 c 0,1.656 1.344,3 3,3 h 30 c 1.656,0 3,-1.344 3,-3 V 20 c 0,-1.656 -1.344,-3 -3,-3 z"
       inkscape:connector-curvature="0"
       style="fill:url(#_lgradient_23)" />
  </g>
</svg>

<?xml version="1.0" encoding="UTF-8" standalone="no"?><!-- Generator: Gravit.io --><svg xmlns="http://www.w3.org/2000/svg" xmlns:xlink="http://www.w3.org/1999/xlink" style="isolation:isolate" viewBox="0 0 48 48" width="48pt" height="48pt"><linearGradient id="_lgradient_21" x1="0" y1="0.5" x2="1" y2="0.5" gradientTransform="matrix(36,0,0,31.1,6,1)" gradientUnits="userSpaceOnUse"><stop offset="0%" stop-opacity="1" style="stop-color:rgb(211,16,39)"/><stop offset="97.82608695652173%" stop-opacity="1" style="stop-color:rgb(234,56,77)"/></linearGradient><path d=" M 22.75 13.4 L 22.75 13.4 C 22.75 14.504 21.854 15.4 20.75 15.4 L 20.75 15.4 C 19.646 15.4 18.75 14.504 18.75 13.4 L 18.75 13.4 L 18.75 11.5 L 17.5 11.5 L 9 11.5 C 7.344 11.5 6 10.156 6 8.5 L 6 4 C 6 2.344 7.344 1 9 1 L 39 1 C 40.656 1 42 2.344 42 4 L 42 8.5 C 42 10.156 40.656 11.5 39 11.5 L 29.25 11.5 L 29.25 30.1 C 29.25 31.204 28.354 32.1 27.25 32.1 L 20.75 32.1 C 19.646 32.1 18.75 31.204 18.75 30.1 L 18.75 14 L 18.75 14 C 18.75 12.896 19.646 12 20.75 12 L 20.75 12 C 21.854 12 22.75 12.896 22.75 14 L 22.75 14 L 22.75 28.1 L 25.25 28.1 L 25.25 8.5 C 25.25 7.948 25.698 7.5 26.25 7.5 L 38 7.5 L 38 5 L 10 5 L 10 7.5 L 17.5 7.5 L 21.75 7.5 C 22.302 7.5 22.75 7.948 22.75 8.5 L 22.75 13.4 Z " fill="url(#_lgradient_21)"/><linearGradient id="_lgradient_22" x1="0" y1="0.5" x2="1" y2="0.5" gradientTransform="matrix(31.05,0,0,28.56,8.45,13)" gradientUnits="userSpaceOnUse"><stop offset="0%" stop-opacity="1" style="stop-color:rgb(211,16,39)"/><stop offset="97.82608695652173%" stop-opacity="1" style="stop-color:rgb(234,56,77)"/></linearGradient><path d=" M 30.5 15 L 30.5 15 C 30.5 13.896 31.396 13 32.5 13 L 33.5 13 L 33.5 15 L 34.5 30.5 L 37.5 30.5 C 38.604 30.5 39.5 31.396 39.5 32.5 L 39.5 35.13 C 39.5 36.234 38.638 37.376 37.577 37.679 L 23.99 41.56 L 10.589 37.624 C 9.53 37.313 8.64 36.164 8.603 35.061 L 8.517 32.499 C 8.48 31.396 9.346 30.5 10.45 30.5 L 13.5 30.5 L 14.5 15 L 14.5 13 L 15.5 13 C 16.604 13 17.5 13.896 17.5 15 L 17.5 15 L 16.608 31.503 C 16.548 32.605 15.604 33.5 14.5 33.5 L 11.55 33.5 L 11.59 34.8 L 24.01 38.44 L 36.5 34.87 L 36.5 33.5 L 33.5 33.5 C 32.396 33.5 31.452 32.605 31.392 31.503 L 30.5 15 Z " fill="url(#_lgradient_22)"/><linearGradient id="_lgradient_23" x1="0" y1="0.5" x2="1" y2="0.5" gradientTransform="matrix(44,0,0,34,2,13)" gradientUnits="userSpaceOnUse"><stop offset="0%" stop-opacity="1" style="stop-color:rgb(211,16,39)"/><stop offset="97.82608695652173%" stop-opacity="1" style="stop-color:rgb(234,56,77)"/></linearGradient><path d=" M 34 17 L 32 17 L 32 14 C 32 13.448 32.448 13 33 13 L 34 13 L 41 13 C 43.76 13 46 15.24 46 18 L 46 42 C 46 44.76 43.76 47 41 47 L 7 47 C 4.24 47 2 44.76 2 42 L 2 18 C 2 15.24 4.24 13 7 13 L 13 13 Q 14 13 14.667 13 L 14.667 13 C 15.403 13 16 13.896 16 15 L 16 17 L 14 17 L 9 17 C 7.344 17 6 18.344 6 20 L 6 40 C 6 41.656 7.344 43 9 43 L 39 43 C 40.656 43 42 41.656 42 40 L 42 20 C 42 18.344 40.656 17 39 17 L 34 17 Z " fill="url(#_lgradient_23)"/></svg>
